ncols        45
nrows        18
xllcorner    5.546299213512
yllcorner    51.985063966118
cellsize     0.009316288045
0.0 0 0 0 0 0 0 0 0 0 0 0 0 0 0 0 0 0 0 0 0 0 0 0 0 0 0 0 0 0 0 0 0 0 0 0 0 0 0 0 0 0 0 0 0 
0 0 0 0 0 0 0 0 0 0 0 0 0 0 0 0 0 0 0 0 0 0 0.00075187970651313662529 0.00075187970651313662529 0 0 0 0 0.00075187970651313662529 0 0 0 0 0 0 0 0 0 0 0 0 0 0 0 0 
0 0 0 0 0 0 0 0 0 0 0 0 0 0 0 0 0 0 0 0 0 0 0.0037593985907733440399 0.0037593985907733440399 0.00075187970651313662529 0 0 0 0.00075187970651313662529 0.00075187970651313662529 0 0 0 0 0 0 0 0 0 0 0 0 0 0 0 
0 0 0 0 0 0 0 0 0 0 0 0 0 0 0 0 0 0 0 0 0.00075187970651313662529 0 0.00075187970651313662529 0.00075187970651313662529 0 0.00075187970651313662529 0 0 0.0015037594130262732506 0.00075187970651313662529 0.00075187970651313662529 0.00075187970651313662529 0.0022556390613317489624 0.010526316240429878235 0 0 0 0 0 0 0 0 0 0 0 
0 0 0 0.00075187970651313662529 0.00075187970651313662529 0 0 0 0 0.00075187970651313662529 0.00075187970651313662529 0.00075187970651313662529 0.00075187970651313662529 0 0 0.00075187970651313662529 0.0015037594130262732506 0.00075187970651313662529 0 0 0 0 0.00075187970651313662529 0.00075187970651313662529 0 0.0030075188260525465012 0.00075187970651313662529 0.00075187970651313662529 0.00075187970651313662529 0.00075187970651313662529 0.0037593985907733440399 0.0037593985907733440399 0.0015037594130262732506 0.0060150376521050930023 0.0037593985907733440399 0.0037593985907733440399 0 0 0 0 0 0 0 0 0 
0 0 0 0 0 0.00075187970651313662529 0.00075187970651313662529 0.00075187970651313662529 0.0022556390613317489624 0.00075187970651313662529 0.00075187970651313662529 0.0045112781226634979248 0.00075187970651313662529 0.00075187970651313662529 0.00075187970651313662529 0.0037593985907733440399 0.0022556390613317489624 0 0.0022556390613317489624 0.0022556390613317489624 0 0 0.0052631581202149391174 0.0052631581202149391174 0.021804511547088623047 0.0037593985907733440399 0.0015037594130262732506 0.0015037594130262732506 0.0030075188260525465012 0.00075187970651313662529 0.0045112781226634979248 0.0045112781226634979248 0.0030075188260525465012 0.0015037594130262732506 0 0 0.00075187970651313662529 0 0 0 0.00075187970651313662529 0 0 0 0 
0 0 0 0 0 0 0 0.00075187970651313662529 0.0045112781226634979248 0.0090225562453269958496 0.0090225562453269958496 0.008270676247775554657 0.0052631581202149391174 0 0 0.00075187970651313662529 0.0015037594130262732506 0.00075187970651313662529 0.00075187970651313662529 0.00075187970651313662529 0 0.0052631581202149391174 0.0097744362428784370422 0.0097744362428784370422 0.0037593985907733440399 0.00075187970651313662529 0.00075187970651313662529 0.00075187970651313662529 0.0015037594130262732506 0.00075187970651313662529 0.0045112781226634979248 0.0045112781226634979248 0.0022556390613317489624 0.0022556390613317489624 0 0 0.00075187970651313662529 0 0 0 0 0 0.0015037594130262732506 0 0 
0 0 0 0 0 0 0 0.0015037594130262732506 0.0045112781226634979248 0.0045112781226634979248 0.0045112781226634979248 0.0045112781226634979248 0.0030075188260525465012 0 0 0.00075187970651313662529 0 0.00075187970651313662529 0.00075187970651313662529 0.00075187970651313662529 0.00075187970651313662529 0 0.0067669171839952468872 0.0067669171839952468872 0.00075187970651313662529 0.0015037594130262732506 0.0030075188260525465012 0.0030075188260525465012 0.00075187970651313662529 0 0.0045112781226634979248 0.0045112781226634979248 0.014285714365541934967 0 0 0 0 0.00075187970651313662529 0.00075187970651313662529 0.00075187970651313662529 0.00075187970651313662529 0.0015037594130262732506 0.0015037594130262732506 0 0 
0 0 0 0 0 0 0 0 0 0.0015037594130262732506 0.0015037594130262732506 0.00075187970651313662529 0.0015037594130262732506 0 0 0.00075187970651313662529 0 0.00075187970651313662529 0.0015037594130262732506 0.0015037594130262732506 0.0037593985907733440399 0.00075187970651313662529 0 0 0 0 0 0 0.00075187970651313662529 0.00075187970651313662529 0.012030075304210186005 0.012030075304210186005 0 0 0 0 0 0.0015037594130262732506 0.00075187970651313662529 0.00075187970651313662529 0 0.0015037594130262732506 0 0 0 
0 0.00075187970651313662529 0.00075187970651313662529 0 0 0 0 0 0 0 0 0.008270676247775554657 0.0022556390613317489624 0 0 0.0015037594130262732506 0 0.00075187970651313662529 0.0015037594130262732506 0.0015037594130262732506 0.0022556390613317489624 0.00075187970651313662529 0 0 0.0045112781226634979248 0 0 0 0.00075187970651313662529 0.00075187970651313662529 0 0 0.0022556390613317489624 0.00075187970651313662529 0.00075187970651313662529 0.00075187970651313662529 0.00075187970651313662529 0.0015037594130262732506 0 0 0 0 0 0 0 
0 0 0 0 0 0.00075187970651313662529 0.00075187970651313662529 0 0 0 0 0 0.0045112781226634979248 0.0037593985907733440399 0.0075187971815466880798 0.0075187971815466880798 0 0.0015037594130262732506 0.0030075188260525465012 0.0030075188260525465012 0.0022556390613317489624 0 0 0 0 0.00075187970651313662529 0.00075187970651313662529 0.00075187970651313662529 0 0 0 0 0 0 0 0 0 0.00075187970651313662529 0 0 0 0 0 0 0 
0 0 0 0 0.00075187970651313662529 0.00075187970651313662529 0.00075187970651313662529 0 0 0.0015037594130262732506 0.0015037594130262732506 0.0022556390613317489624 0.020300751551985740662 0.0075187971815466880798 0.0022556390613317489624 0.0022556390613317489624 0.0015037594130262732506 0.00075187970651313662529 0 0 0.00075187970651313662529 0.0030075188260525465012 0.0022556390613317489624 0.0022556390613317489624 0.0015037594130262732506 0.0037593985907733440399 0 0 0.0015037594130262732506 0 0.00075187970651313662529 0.00075187970651313662529 0 0 0 0 0 0 0 0 0 0 0 0 0 
0 0 0 0 0 0 0 0.00075187970651313662529 0 0.0045112781226634979248 0.0045112781226634979248 0.0015037594130262732506 0.0015037594130262732506 0.0015037594130262732506 0.0052631581202149391174 0.0052631581202149391174 0.00075187970651313662529 0.0015037594130262732506 0.0022556390613317489624 0.0022556390613317489624 0.00075187970651313662529 0.00075187970651313662529 0.0052631581202149391174 0.0052631581202149391174 0.0037593985907733440399 0.0045112781226634979248 0.00075187970651313662529 0.00075187970651313662529 0 0.0022556390613317489624 0 0 0 0 0 0 0 0 0 0 0 0 0 0 0 
0 0 0 0 0 0 0 0 0 0 0 0.0015037594130262732506 0.00075187970651313662529 0.0015037594130262732506 0.0045112781226634979248 0.0045112781226634979248 0.0015037594130262732506 0.00075187970651313662529 0.0015037594130262732506 0.0015037594130262732506 0 0.00075187970651313662529 0.00075187970651313662529 0.00075187970651313662529 0.0037593985907733440399 0.011278195306658744812 0.0015037594130262732506 0.0015037594130262732506 0.0037593985907733440399 0 0 0 0 0 0 0 0 0 0 0 0 0 0 0 0 
0 0 0 0 0 0 0 0 0 0.00075187970651313662529 0.00075187970651313662529 0.00075187970651313662529 0.0030075188260525465012 0.0060150376521050930023 0.0030075188260525465012 0.0030075188260525465012 0.0022556390613317489624 0.0015037594130262732506 0.00075187970651313662529 0.00075187970651313662529 0.0022556390613317489624 0 0 0 0 0 0 0 0 0 0 0 0 0 0 0 0 0 0 0 0 0 0 0 0 
0 0 0 0 0 0 0 0.00075187970651313662529 0 0 0 0 0.0090225562453269958496 0.0037593985907733440399 0.0045112781226634979248 0.0045112781226634979248 0.0037593985907733440399 0.00075187970651313662529 0.0097744362428784370422 0.0097744362428784370422 0.0037593985907733440399 0 0 0 0 0 0 0 0 0 0 0 0 0 0 0 0 0 0 0 0 0 0 0 0 
0 0 0 0 0 0 0 0 0 0 0 0.00075187970651313662529 0.0030075188260525465012 0.012781955301761627197 0.012781955301761627197 0.012781955301761627197 0.0030075188260525465012 0 0 0 0 0 0 0 0 0 0 0 0 0 0 0 0 0 0 0 0 0 0 0 0 0 0 0 0 
0 0 0 0 0 0 0 0 0 0 0 0 0 0 0 0 0 0 0 0 0 0 0 0 0 0 0 0 0 0 0 0 0 0 0 0 0 0 0 0 0 0 0 0 0 
