NCOLS 33
NROWS 33
XLLCORNER 165928.796021
YLLCORNER 439893.280029
CELLSIZE 840.909091
NODATA_VALUE NaN
0 0 0 0 0 0 0 0 0 0 0 0 0 0 0 0 0 0 0 0 0 0 0 0 0 0 0 0 0 0 0 0 0 
0 0 0 0 0 0 0 0 0 0 0 0 0 0 0 0 0 0 0 0 0 0 0 0 0 0 0 0 0 0 0 0 0 
0 0 0 0 0 0 0 0 0 0 0 0 0 0 0 0 0 0 0 0 0 0 0 0 0 0 0 0 0 0 0 0 0 
0 0 0 0 0 0 0 0 0 0 0 0 0 0 0 0 0 0 0 0 0 0 0 0 0 0 0 0 0 0 0 0 0 
0 0 0 0 0 0 0 0 0 0 0 0 0 0 0 0 0 0 0 0 0 0 0 0 0 0 0 0 0 0 0 0 0 
0 0 0 0 0 0 0 0 0 0 0 0 0 0 0 0 0 0 0 0 0 0 0 0 0 0 0 0 0 0 0 0 0 
0 0 0 0 0 0 0 0 0 0 0 0 0 0 0 10 6 0 4 0 4 2 0 2 6 2 0 0 0 0 0 0 0 
0 0 0 0 0 0 0 0 0 0 0 0 0 0 8 12 4 2 0 2 6 4 8 4 2 2 0 0 0 0 0 0 0 
0 0 0 0 0 0 0 0 0 2 0 4 2 2 6 4 4 6 0 0 0 2 4 4 0 2 0 0 0 0 0 0 0 
0 0 0 0 16 0 8 2 4 8 4 2 2 14 8 4 10 8 0 0 0 4 0 4 2 0 0 0 0 0 0 0 0 
0 4 10 2 4 4 4 2 2 0 4 6 2 4 6 8 6 4 2 0 0 2 0 0 2 2 0 0 0 0 0 0 0 
6 8 2 4 8 4 2 10 2 4 2 0 6 2 4 8 4 2 0 0 0 2 0 0 0 4 0 0 0 0 0 0 0 
4 0 0 2 4 6 12 4 4 6 2 0 6 4 0 6 6 4 210 0 0 0 2 2 0 2 2 6 0 0 0 0 0 
0 8 6 4 12 6 12 2 4 0 2 2 4 2 2 0 4 2 0 0 2 0 2 8 0 0 0 2 4 2 2 0 0 
0 6 8 6 4 250 224 0 4 2 0 2 2 2 8 0 0 2 2 2 2 0 2 2 0 0 8 12 4 2 2 0 2 
0 8 2 8 0 2 220 6 2 0 2 0 4 2 2 0 0 4 0 2 2 0 2 0 6 2 2 2 2 0 2 0 0 
0 0 6 2 6 4 4 0 4 0 4 2 6 0 8 0 0 8 2 0 2 0 2 0 2 2 0 0 0 4 2 0 0 
0 8 188 2 6 6 8 0 8 0 0 4 4 2 0 0 14 2 4 4 0 0 0 0 2 0 14 6 0 0 0 0 0 
0 4 14 10 4 14 2 10 0 6 4 2 0 0 0 6 0 0 8 2 2 2 0 2 2 6 8 2 4 0 0 0 0 
0 6 10 2 8 6 0 202 8 190 8 0 0 0 6 0 2 4 2 4 0 6 0 2 0 0 0 0 0 0 0 0 0 
0 0 6 6 8 2 4 172 220 218 214 198 4 0 0 4 4 2 0 0 0 8 4 0 0 0 0 0 0 0 0 0 0 
0 0 0 0 6 10 12 2 4 228 6 6 2 0 2 2 4 0 0 2 2 2 10 0 0 0 0 0 0 0 0 0 0 
0 0 0 4 10 4 6 4 166 216 4 0 0 0 4 4 2 2 6 2 4 2 0 0 0 0 0 0 0 0 0 0 0 
0 0 0 0 4 12 4 222 8 2 0 4 0 2 0 2 0 0 0 0 0 0 0 0 0 0 0 0 0 0 0 0 0 
0 0 0 8 0 12 6 4 6 6 4 2 2 10 4 0 0 0 0 0 0 0 0 0 0 0 0 0 0 0 0 0 0 
0 0 0 0 2 0 4 2 6 214 218 230 0 0 4 0 0 0 0 0 0 0 0 0 0 0 0 0 0 0 0 0 0 
0 0 0 0 2 0 6 12 4 6 188 216 0 0 0 0 0 0 0 0 0 0 0 0 0 0 0 0 0 0 0 0 0 
0 0 0 0 0 0 0 0 0 0 0 0 0 0 0 0 0 0 0 0 0 0 0 0 0 0 0 0 0 0 0 0 0 
0 0 0 0 0 0 0 0 0 0 0 0 0 0 0 0 0 0 0 0 0 0 0 0 0 0 0 0 0 0 0 0 0 
0 0 0 0 0 0 0 0 0 0 0 0 0 0 0 0 0 0 0 0 0 0 0 0 0 0 0 0 0 0 0 0 0 
0 0 0 0 0 0 0 0 0 0 0 0 0 0 0 0 0 0 0 0 0 0 0 0 0 0 0 0 0 0 0 0 0 
0 0 0 0 0 0 0 0 0 0 0 0 0 0 0 0 0 0 0 0 0 0 0 0 0 0 0 0 0 0 0 0 0 
0 0 0 0 0 0 0 0 0 0 0 0 0 0 0 0 0 0 0 0 0 0 0 0 0 0 0 0 0 0 0 0 0 